icons/readme.svg

<?xml version="1.0" encoding="UTF-8"?>
<!DOCTYPE svg PUBLIC "-//W3C//DTD SVG 1.1//EN" "http://www.w3.org/Graphics/SVG/1.1/DTD/svg11.dtd">
<!-- Creator: CorelDRAW 2021 (64-Bit) -->
<svg xmlns="http://www.w3.org/2000/svg" xml:space="preserve" width="68.0994mm" height="69.294mm" version="1.1" style="shape-rendering:geometricPrecision; text-rendering:geometricPrecision; image-rendering:optimizeQuality; fill-rule:evenodd; clip-rule:evenodd"
viewBox="0 0 172.53 175.56"
 xmlns:xlink="http://www.w3.org/1999/xlink"
 xmlns:xodm="http://www.corel.com/coreldraw/odm/2003">
 <defs>
  <style type="text/css">
   <![CDATA[
    .fil0 {fill:#DA1F24}
   ]]>
  </style>
 </defs>
 <g id="Layer_x0020_1">
  <metadata id="CorelCorpID_0Corel-Layer"/>
  <path class="fil0" d="M-0 141.93l77.35 0 0 -18.83 -56.17 -56.5 65.92 -66.59 63.9 66.93 -56.5 57.51 0 17.49 78.03 0 0 33.63 -19.51 0 0 -17.82 -20.18 0 0 17.82 -16.82 0 0 -17.82 -20.18 0 0 17.82 -19.51 0 0 -17.82 -20.18 0 0 17.82 -19.84 0 0 -17.82 -20.18 0 0 17.82 -16.14 0 0 -33.63zm86.27 -110.57l35.91 35.91 -35.91 35.91 -35.91 -35.91 35.91 -35.91z"/>
 </g>
</svg>

<svg xmlns="http://www.w3.org/2000/svg" xml:space="preserve" width="257.384" height="261.899" style="shape-rendering:geometricPrecision;text-rendering:geometricPrecision;image-rendering:optimizeQuality;fill-rule:evenodd;clip-rule:evenodd" viewBox="0 0 172.53 175.56"><path d="M0 141.93h77.35V123.1L21.18 66.6 87.1.01 151 66.94l-56.5 57.51v17.49h78.03v33.63h-19.51v-17.82h-20.18v17.82h-16.82v-17.82H95.84v17.82H76.33v-17.82H56.15v17.82H36.31v-17.82H16.13v17.82H-.01v-33.63zM86.27 31.36l35.91 35.91-35.91 35.91-35.91-35.91z" style="fill:#da1f24"/></svg>
